src/ui/Svg/optimized/best-block.svg

<?xml version="1.0" standalone="no"?>
<!DOCTYPE svg PUBLIC "-//W3C//DTD SVG 1.1//EN" "http://www.w3.org/Graphics/SVG/1.1/DTD/svg11.dtd">
<svg class="icon" version="1.1" viewBox="0 0 1024 1024" fill="currentColor" aria-hidden="true">
  <path d="M828.235294 376.470588v387.312941l-331.294118 152.997647v-445.741176l243.350589-112.338824a228.020706 228.020706 0 0 1-60.235294-38.249411L466.823529 418.635294 147.275294 271.058824 466.823529 123.482353l138.842353 64.150588A214.558118 214.558118 0 0 1 602.352941 150.588235c0.060235-10.089412 0.783059-20.118588 2.108235-30.117647l-124.988235-57.524706a30.117647 30.117647 0 0 0-25.298823 0l-391.529412 180.705883A30.117647 30.117647 0 0 0 45.176471 271.058824v512a30.117647 30.117647 0 0 0 17.468235 27.407058l391.529412 180.705883a30.117647 30.117647 0 0 0 25.298823 0l391.529412-180.705883A30.117647 30.117647 0 0 0 888.470588 783.058824V368.037647a222.027294 222.027294 0 0 1-60.235294 8.432941zM828.235294 301.176471a150.588235 150.588235 0 1 0 0-301.176471 150.588235 150.588235 0 0 0 0 301.176471z"/>
</svg>

<svg xmlns="http://www.w3.org/2000/svg" class="icon" viewBox="0 0 1024 1024" fill="currentColor" aria-hidden="true">
  <path d="M828.235 376.47v387.314L496.941 916.78V471.04l243.35-112.339a228.02 228.02 0 01-60.235-38.25l-213.232 98.184L147.275 271.06l319.549-147.577 138.842 64.15a214.558 214.558 0 01-3.313-37.044c.06-10.09.783-20.118 2.108-30.117L479.473 62.946a30.118 30.118 0 00-25.299 0L62.644 243.652a30.118 30.118 0 00-17.468 27.407v512a30.118 30.118 0 0017.469 27.407l391.53 180.706a30.118 30.118 0 0025.298 0l391.53-180.706a30.118 30.118 0 0017.468-27.407V368.038a222.027 222.027 0 01-60.236 8.433zm0-75.294a150.588 150.588 0 100-301.176 150.588 150.588 0 000 301.176z"/>
</svg>
